X:1
T:Oriental -- Hornpipe
Z:Bob Puckette <bpuckette:msn.com> 2003-3-10
R:hornpipe
B:Cole's 1000 Fiddle Tunes
M:2/4
L:1/16
K:A
((3uEFG)|"4"AGAE CEAc|e^dec Ac"0"ea|fae adaca|BABc dBGE|
AGAE CEAc|e^dec Acea|((3fga)(ued) cBAG|A2A2A2:|
|:vEG|BABG EGBc|dcdB GBed|cBcA EAcd|e^def .e2(fg)|
agae fdBG|ABcd eaec|dfed cBAG|A2A2A2:|
